X: 4
T: The Humours Of Ballyconnell
R: reel
M: 4/4
L: 1/8
K: Dmaj
|:defe dBAF|BFAF E3A|defe dBAF|BFAF D3A|
defe dBAF|BFAF E3A|defe dBAF|BFAF D3E||
|:FDAD FD D2|GEBE GE E2|FDAD FD D2| BFAF D3E|
FDAD FD D2|GEBE GE E2|(3FGA Bc dedB| BFAF D3f||
|:a3f a3f|gece gece|a3f a3g| fgef defg
a3f a3f|gece gece|defg a3g|fgef d3A||


Tune 1428	Setting 1428

